X: 20080
T: Jimmy Mo Mhíle Stór
R: waltz
M: 3/4
K: Gmajor
BA|:"G"G2>A2 B2|"Em"B g3 fe|"Bm"d2 e2>B2|"D7"A4 G2|"G"G6-|G4 de/-f/||
|:"Em"g2 B3 c|"Bm"de2>e2f|"G"g2 a2>"D"f2|"Em"e2>d2 BA|"Bm"B6-|1 B4 de/-f/:|2 B4 BA||
"G"G2>A2 B2|"Em"B g3 fe|"Bm"d2 e2>B2|"D7"A4 G2|"G"G6-|G4||

